posts/2023-04-12/visual-book-recommender/imgs-web/pmi_frequency.svg

<svg xmlns="http://www.w3.org/2000/svg" xmlns:xlink="http://www.w3.org/1999/xlink" width="182.448" height="43.424" viewBox="0 -1449.5 10080.1 2399" xmlns:v="https://vecta.io/nano"><defs><path id="A" d="M118-162q2 0 6-2 4-2 11-3 7-1 12-1 13 0 24 13 11 13 16 29 10 27 34 153 24 126 46 240 22 114 22 115v3h-47q-47 0-50 2-4 3-4 10l7 28q2 5 8 5 6 0 47 1 48 0 48 1 0 2 9 50 9 48 12 58 37 165 146 165 37-2 61-22 24-20 24-53 0-36-21-52-21-16-42-17-44 0-44 42 0 19 11 33 11 14 24 21l9 5q-16 6-30 6-12 0-23-10-11-10-15-28-7-29-16-78-9-49-16-83-7-34-7-36 0-2 55-2 45 0 52-1 7-1 11-6 1-4-2-17-3-13-5-16-2-5-9-5-7 0-54-1h-56l-23-122Q301 15 282-47q-27-85-70-126-37-32-73-32-32 0-58 19-26 19-26 54 0 37 21 54 21 17 42 17 44 0 44-42 0-19-11-33-11-14-24-21l-9-5z"/><path id="B" d="M94 250Q94 319 104 381T127 488T164 576T202 643T244 695T277 729T302 750H315H319Q333 750 333 741Q333 738 316 720T275 667T226 581T184 443T167 250T184 58T225 -81T274 -167T316 -220T333 -241Q333 -250 318 -250H315H302L274 -226Q180 -141 137 -14T94 250Z"/><path id="C" d="M52 289q7 42 54 97 47 55 116 56 35 0 64-18 29-18 43-45 42 63 101 63 37 0 64-22 27-22 28-59 0-29-14-47-14-18-27-22-13-4-23-4-19 0-31 11-12 11-12 29 0 46 50 63-11 13-40 13-13 0-19-2-38-16-56-66-60-221-60-258 0-28 16-40 16-12 35-12 37 0 73 33 36 33 49 81 3 10 6 11 3 1 16 2h4q15 0 15-8 0-1-2-11-16-57-62-101-46-44-107-44-70 0-106 63-41-62-94-62h-6q-49 0-70 26-21 26-22 55 0 32 19 52 19 20 45 20 43 0 43-42 0-20-12-35-12-15-23-20-11-5-13-5l-3-1q0-1 6-4 6-3 16-7 10-4 19-3 36 0 62 45 9 16 23 68 14 52 28 108 14 56 16 66 5 27 5 39 0 28-15 40-15 12-34 12-40 0-75-32-35-32-49-82-2-9-5-10-3-1-16-2H58q-6 6-6 11z"/><path id="D" d="M60 749l4 1q5 0 10 0h12l28-24q94-85 137-212 43-127 43-264 0-68-10-131-10-63-23-107-13-44-37-88-24-44-38-67-14-23-41-51-27-28-32-33-5-5-23-19-3-3-4-4H74q-8 0-11 0-3 0-5 3-2 3-3 9 1 1 11 13Q221-64 221 250q0 314-155 475-10 12-11 13 0 8 5 11z"/><path id="E" d="M56 347q0 13 14 20h637q15-8 15-20 0-11-14-19l-318-1H72q-16 5-16 20zm0-194q0 15 16 20h636q14-10 14-20 0-13-15-20H70q-14 7-14 20z"/><path id="F" d="M618-943l-6-6h-30l-14 6q-96 40-157 102-61 62-79 138-5 21-5 50 0 29-2 303-1 322-2 332-6 42-22 79-16 37-37 63-21 26-43 47-22 21-42 34-20 13-32 20-12 7-15 9-2 4-2 16 0 5 0 8 0 3 1 6 1 3 1 3 0 0 2 2 2 2 5 3 3 1 5 3 63 33 112 92 54 69 67 152 1 10 2 332 1 273 1 303 0 30 6 51 37 153 234 238l16 7h30l6-6v-15q0-16-2-18l-8-5q-9-4-23-13-14-9-33-21-19-12-37-29-18-17-36-38-18-21-30-48-12-27-20-57-4-20-4-48 0-28-2-301-1-272-1-302 0-30-6-51-9-39-28-74-19-35-42-60-23-25-49-46-26-21-47-34-21-13-36-20-15-7-17-10l-9-3 17-9q85-42 140-104 55-62 71-135 5-21 5-51 0-30 2-301 0-48 0-123 1-205 5-222 1-3 1-5 5-23 14-44 9-21 22-39 13-18 26-34 13-16 28-29 15-13 29-23 14-10 26-18 12-8 21-13 9-5 15-9l6-2q2-2 2-18v-15z"/><path id="G" d="M213 578l-13-5q-14-5-40-10-26-5-58-7H83v46h19q47 2 87 15 40 13 56 24 16 11 28 22 2 3 12 3 9 0 17-6V361l1-300q7-7 12-9 5-2 24-4 19-2 62-2h26V0h-11q-21 3-159 3-136 0-157-3H88v46h26q22 0 38 0 16 0 25 1 9 1 16 3 7 2 8 2 1 0 6 5 5 5 6 4v517z"/><path id="H" d="M21 287q1 3 2 8 1 5 5 22 4 17 10 31 6 14 15 33 9 19 20 30 11 11 26 22 15 11 33 9 29 0 51-12 22-12 31-22 9-10 11-20 2-6 3-6 1 0 8 7 48 52 111 52h3q48 0 72-41 8-19 8-37 0-30-13-48-13-18-26-23-13-5-25-4-20 0-32 11-12 11-12 29 0 48 56 64-22 13-36 13-56 0-103-74-10-16-15-33-5-17-34-133-34-140-39-149-13-27-43-27-13 0-21 6-8 6-11 12-3 6-2 10 0 13 40 172 40 159 40 177 0 39-26 39-21 0-36-28-15-28-24-61-9-33-11-36-2-2-16-2H27q-6 6-6 9z"/><path id="I" d="M33 157q0 101 76 192 76 91 171 92 51 0 90-49 16 30 46 30 13 0 23-8 10-8 10-20 0-13-37-160-37-147-38-166 0-25 7-33 7-8 21-9 9 1 20 9 21 20 41 96 6 20 10 21 2 1 10 1h4q19 0 19-9 0-6-5-27-5-21-20-54-15-33-32-50-13-13-32-21-8-2-24-2-34 0-57 15-23 15-30 31l-6 15q-1 1-4-1-2-2-4-4-59-56-120-56-55 0-97 40-42 40-42 127zm318 171q0 6-5 22-5 16-23 35-18 19-46 20-35 0-67-31-32-31-50-81-29-79-41-164 0-3 0-11 0-8-1-12 0-45 18-62 18-17 43-18 38 0 75 33 37 33 44 51 2 4 27 107 25 103 26 111z"/><path id="J" d="M26 385q-7 7-7 10 0 4 3 16 3 12 5 14 2 5 9 5 7 0 51 1h53l19 80q3 11 7 29 4 18 7 26 3 8 6 20 3 12 8 17 5 5 10 12 5 7 14 9 9 2 18 2 18-1 25-11 7-10 7-19 0-7-9-47-9-40-20-79l-10-37q0-2 50-2h51q7-7 7-11 0-22-13-35H210l-36-145Q135 80 135 68q0-42 27-42 35 0 68 34 33 34 53 84 2 6 5 7 3 1 15 2h4q15 0 15-8 0-3-3-12-5-16-18-38-13-22-34-47-21-25-51-42-30-17-61-17-30 0-57 15-27 15-39 52-2 8-2 27v18l35 140q35 141 36 142 0 2-51 2H26z"/><path id="K" d="M184 600q0 24 19 42 19 18 44 19 18 0 30-12 12-12 13-30 0-23-20-42-20-19-44-20-15 0-28 10-13 10-14 33zM21 287q0 8 9 31 9 23 24 51 15 28 44 51 29 23 60 22 39 0 65-23 26-23 27-62 0-17-14-56-14-39-40-105-26-66-42-113-5-22-5-32 0-25 17-25 9 0 19 3 10 3 23 14 13 11 27 35 14 24 25 59 3 12 5 14 2 2 17 2 20 0 20-10 0-8-9-31-9-23-25-51-16-28-45-50-29-22-62-22-32 0-59 21-27 21-28 64 0 17 5 32 5 15 43 114 38 101 44 121 6 20 7 39 0 24-17 24h-2q-30 0-55-33-25-33-38-84-1-1-2-3-1-2-1-3 0-1-2-2-2-1-3-1-1 0-4 0-3 0-8 0H27q-6 6-6 9z"/><path id="L" d="M21 287q1 6 3 16 2 10 12 38 10 28 20 47 10 19 33 37 23 18 46 17 36 0 60-18 24-18 30-34 6-16 6-21 0-2 1-2l11 11q61 64 139 64 54 0 87-27 33-27 34-79 1-52-38-157-39-105-38-127 0-26 17-26 6 0 9 1 29 5 52 38 23 33 35 80 2 8 20 8 20 0 20-8 0-1-4-15-8-29-22-57-14-28-46-56-32-28-69-27-47 0-68 27-21 27-21 56 0 19 36 120 36 101 37 152 0 59-44 59h-5q-86 0-145-101l-7-12-33-134Q156 26 151 16q-13-27-43-27-13 0-21 6-8 6-11 12-3 6-2 10 0 13 38 163 38 150 40 163 1 5 1 23 0 39-24 39-38 0-63-100-6-20-6-21-2-6-19-6H27q-6 6-6 9z"/><path id="M" d="M311 43q-15-13-44-28-29-15-61-15-63 0-101 45-38 45-39 115 0 105 77 193 77 88 171 89 47 0 87-48l3 4q2 3 5 6 3 3 9 8 6 5 13 7 7 2 16 3 14 0 23-9 9-9 10-19 0-15-57-242-57-227-60-232-18-54-77-89-59-35-135-36-141 0-141 68 0 26 18 46 18 20 46 20 15 0 28-9 13-9 14-31 0-10-2-19-2-9-7-14-5-5-8-10-3-5-7-8l-2-2h1q10-3 60-3 38 0 60 12 23 11 43 33 20 22 28 47 6 19 16 62 13 48 13 56zm73 285l-4 11q-3 11-5 15-2 4-6 14-4 10-10 14-6 4-13 11-7 7-18 9-11 2-22 3-44 0-85-53-30-39-50-119-20-80-20-116 0-79 62-79 56 0 110 70l8 10 53 210z"/><path id="N" d="M164 157q0-24-16-40-16-16-39-16h-7q46-79 122-79 70 0 102 60 19 33 19 128 0 103-27 139-26 33-58 33h-6q-78 0-118-68-4-7-7-8-3-1-15-2-17 0-19 6-2 4-2 175v129q0 50 5 50 2 2 4 2 1 0 21-8 20-8 55-16 35-8 75-8 71 0 136 28 8 4 13 4 8 0 8-18v-13q-82-97-205-97-31 0-56 6l-10 2V374q19 14 30 22 11 8 36 16 25 8 51 8 81 0 137-65 56-65 56-154 0-92-64-157-64-65-156-66-81 0-130 54-49 54-49 122 0 24 11 38 11 14 23 18 12 4 23 4 25 0 41-17 16-17 16-40z"/><path id="O" d="M96 585q56 81 153 81 48 0 96-26 48-26 78-92 37-83 37-228 0-155-43-237-20-42-55-67-35-25-61-31-26-6-51-7-26 0-52 6-26 6-61 32-35 26-55 67-43 82-43 237 0 174 57 265zm225 12q-30 32-71 32-42 0-72-32-25-26-33-72-8-46-8-192 0-158 8-208 8-50 36-79 28-30 69-30 40 0 68 30 29 30 36 84 7 54 8 203 0 145-8 191-8 46-33 73z"/><path id="P" d="M28 218q0 55 20 100 20 45 50 73 30 28 65 42 35 14 66 15 53 0 91-18 38-18 58-50 20-32 28-64 8-32 9-71 0-7-7-14H126v-15q0-148 100-180 20-6 44-6 42 0 72 32 17 17 27 42l10 24q3 3 16 3h3q17 0 17-10 0-4-3-13-19-55-63-87-44-32-99-32-95 0-158 69-63 69-64 160zm305 57q-11 128-95 136h-2q-8 0-16-1-8-1-25-8-17-7-29-21-12-14-23-41-11-27-16-66v-7h206v8z"/><path id="Q" d="M42 46h14q39 0 47 14v8q0 9 0 23 0 14 0 33 0 19 1 43 1 24 0 50-1 26 0 55 1 29 0 57 0 37 0 78 0 41 0 75 0 34 0 60 0 26-1 44-1 18 0 17-3 19-14 25-11 6-45 9H26v23q0 23 2 23l10 1q10 1 29 2 19 1 37 2 17 1 37 2 20 1 30 3 10 2 11 1h3V379q0-317 1-319 4-8 12-11 21-3 49-3h16V0h-8l-23 1q-23 1-49 1-26 0-38 1-12 1-38 0-26-1-50-2L34 0h-8v46h16z"/><path id="R" d="M295 316q0 40-27 69-27 29-78 29-36 0-62-13-30-19-30-52-1-5 0-13 1-8 16-24 15-16 43-25 18-5 44-9 26-4 44-9 18-5 32-13 17-8 33-20 16-12 32-41 16-29 17-62 0-62-38-102-38-40-123-41h-8q-52 0-96 36l-8-7-9-9Q71 4 65-1L54-11h-8-4q-3 0-9 6v79 58q0 21 2 25 2 4 10 5h9q12 0 16-4 4-4 5-12 1-8 7-27 6-19 19-42 35-51 97-51 97 0 97 78 0 29-18 47-20 24-83 36-63 12-83 23-36 17-57 46-21 29-21 62 0 39 17 66 17 27 43 40 26 13 50 18 24 5 44 5h11q40 0 70-15l15-8 9 7q10 9 22 17h8 4q3 0 9-6V310l-6-6h-28q-6 6-6 12z"/></defs><g transform="scale(1 -1)"><use xlink:href="#A"/><g transform="translate(550)"><use xlink:href="#B"/><use xlink:href="#C" x="389"/><use xlink:href="#D" x="961"/></g><use xlink:href="#E" x="2177.8"/><g transform="translate(3233.6)"><use xlink:href="#F"/><g transform="translate(750)"><g transform="translate(0 647.3)"><use xlink:href="#G"/><use xlink:href="#H" x="1500"/><use xlink:href="#I" x="1951"/><use xlink:href="#J" x="2480"/><use xlink:href="#K" x="2841"/><use xlink:href="#L" x="3186"/><use xlink:href="#M" x="3786"/><use xlink:href="#E" x="4540.8"/><use xlink:href="#N" x="5596.6"/></g><g transform="translate(0 -647.3)"><use xlink:href="#O"/><g transform="translate(1500)"><use xlink:href="#P"/><use xlink:href="#Q" x="444"/><use xlink:href="#R" x="722"/><use xlink:href="#P" x="1116"/></g></g></g></g></g></svg>

<?xml version="1.0" encoding="UTF-8" standalone="no" ?>
<svg xmlns="http://www.w3.org/2000/svg" width="182.448px" height="43.424px" viewBox="0 -1449.5 10080.1 2399" xmlns:xlink="http://www.w3.org/1999/xlink"><defs><path id="MJX-29-TEX-I-66" d="M118 -162Q120 -162 124 -164T135 -167T147 -168Q160 -168 171 -155T187 -126Q197 -99 221 27T267 267T289 382V385H242Q195 385 192 387Q188 390 188 397L195 425Q197 430 203 430T250 431Q298 431 298 432Q298 434 307 482T319 540Q356 705 465 705Q502 703 526 683T550 630Q550 594 529 578T487 561Q443 561 443 603Q443 622 454 636T478 657L487 662Q471 668 457 668Q445 668 434 658T419 630Q412 601 403 552T387 469T380 433Q380 431 435 431Q480 431 487 430T498 424Q499 420 496 407T491 391Q489 386 482 386T428 385H372L349 263Q301 15 282 -47Q255 -132 212 -173Q175 -205 139 -205Q107 -205 81 -186T55 -132Q55 -95 76 -78T118 -61Q162 -61 162 -103Q162 -122 151 -136T127 -157L118 -162Z"></path><path id="MJX-29-TEX-N-28" d="M94 250Q94 319 104 381T127 488T164 576T202 643T244 695T277 729T302 750H315H319Q333 750 333 741Q333 738 316 720T275 667T226 581T184 443T167 250T184 58T225 -81T274 -167T316 -220T333 -241Q333 -250 318 -250H315H302L274 -226Q180 -141 137 -14T94 250Z"></path><path id="MJX-29-TEX-I-78" d="M52 289Q59 331 106 386T222 442Q257 442 286 424T329 379Q371 442 430 442Q467 442 494 420T522 361Q522 332 508 314T481 292T458 288Q439 288 427 299T415 328Q415 374 465 391Q454 404 425 404Q412 404 406 402Q368 386 350 336Q290 115 290 78Q290 50 306 38T341 26Q378 26 414 59T463 140Q466 150 469 151T485 153H489Q504 153 504 145Q504 144 502 134Q486 77 440 33T333 -11Q263 -11 227 52Q186 -10 133 -10H127Q78 -10 57 16T35 71Q35 103 54 123T99 143Q142 143 142 101Q142 81 130 66T107 46T94 41L91 40Q91 39 97 36T113 29T132 26Q168 26 194 71Q203 87 217 139T245 247T261 313Q266 340 266 352Q266 380 251 392T217 404Q177 404 142 372T93 290Q91 281 88 280T72 278H58Q52 284 52 289Z"></path><path id="MJX-29-TEX-N-29" d="M60 749L64 750Q69 750 74 750H86L114 726Q208 641 251 514T294 250Q294 182 284 119T261 12T224 -76T186 -143T145 -194T113 -227T90 -246Q87 -249 86 -250H74Q66 -250 63 -250T58 -247T55 -238Q56 -237 66 -225Q221 -64 221 250T66 725Q56 737 55 738Q55 746 60 749Z"></path><path id="MJX-29-TEX-N-3D" d="M56 347Q56 360 70 367H707Q722 359 722 347Q722 336 708 328L390 327H72Q56 332 56 347ZM56 153Q56 168 72 173H708Q722 163 722 153Q722 140 707 133H70Q56 140 56 153Z"></path><path id="MJX-29-TEX-S3-7B" d="M618 -943L612 -949H582L568 -943Q472 -903 411 -841T332 -703Q327 -682 327 -653T325 -350Q324 -28 323 -18Q317 24 301 61T264 124T221 171T179 205T147 225T132 234Q130 238 130 250Q130 255 130 258T131 264T132 267T134 269T139 272T144 275Q207 308 256 367Q310 436 323 519Q324 529 325 851Q326 1124 326 1154T332 1205Q369 1358 566 1443L582 1450H612L618 1444V1429Q618 1413 616 1411L608 1406Q599 1402 585 1393T552 1372T515 1343T479 1305T449 1257T429 1200Q425 1180 425 1152T423 851Q422 579 422 549T416 498Q407 459 388 424T346 364T297 318T250 284T214 264T197 254L188 251L205 242Q290 200 345 138T416 3Q421 -18 421 -48T423 -349Q423 -397 423 -472Q424 -677 428 -694Q429 -697 429 -699Q434 -722 443 -743T465 -782T491 -816T519 -845T548 -868T574 -886T595 -899T610 -908L616 -910Q618 -912 618 -928V-943Z"></path><path id="MJX-29-TEX-N-31" d="M213 578L200 573Q186 568 160 563T102 556H83V602H102Q149 604 189 617T245 641T273 663Q275 666 285 666Q294 666 302 660V361L303 61Q310 54 315 52T339 48T401 46H427V0H416Q395 3 257 3Q121 3 100 0H88V46H114Q136 46 152 46T177 47T193 50T201 52T207 57T213 61V578Z"></path><path id="MJX-29-TEX-I-72" d="M21 287Q22 290 23 295T28 317T38 348T53 381T73 411T99 433T132 442Q161 442 183 430T214 408T225 388Q227 382 228 382T236 389Q284 441 347 441H350Q398 441 422 400Q430 381 430 363Q430 333 417 315T391 292T366 288Q346 288 334 299T322 328Q322 376 378 392Q356 405 342 405Q286 405 239 331Q229 315 224 298T190 165Q156 25 151 16Q138 -11 108 -11Q95 -11 87 -5T76 7T74 17Q74 30 114 189T154 366Q154 405 128 405Q107 405 92 377T68 316T57 280Q55 278 41 278H27Q21 284 21 287Z"></path><path id="MJX-29-TEX-I-61" d="M33 157Q33 258 109 349T280 441Q331 441 370 392Q386 422 416 422Q429 422 439 414T449 394Q449 381 412 234T374 68Q374 43 381 35T402 26Q411 27 422 35Q443 55 463 131Q469 151 473 152Q475 153 483 153H487Q506 153 506 144Q506 138 501 117T481 63T449 13Q436 0 417 -8Q409 -10 393 -10Q359 -10 336 5T306 36L300 51Q299 52 296 50Q294 48 292 46Q233 -10 172 -10Q117 -10 75 30T33 157ZM351 328Q351 334 346 350T323 385T277 405Q242 405 210 374T160 293Q131 214 119 129Q119 126 119 118T118 106Q118 61 136 44T179 26Q217 26 254 59T298 110Q300 114 325 217T351 328Z"></path><path id="MJX-29-TEX-I-74" d="M26 385Q19 392 19 395Q19 399 22 411T27 425Q29 430 36 430T87 431H140L159 511Q162 522 166 540T173 566T179 586T187 603T197 615T211 624T229 626Q247 625 254 615T261 596Q261 589 252 549T232 470L222 433Q222 431 272 431H323Q330 424 330 420Q330 398 317 385H210L174 240Q135 80 135 68Q135 26 162 26Q197 26 230 60T283 144Q285 150 288 151T303 153H307Q322 153 322 145Q322 142 319 133Q314 117 301 95T267 48T216 6T155 -11Q125 -11 98 4T59 56Q57 64 57 83V101L92 241Q127 382 128 383Q128 385 77 385H26Z"></path><path id="MJX-29-TEX-I-69" d="M184 600Q184 624 203 642T247 661Q265 661 277 649T290 619Q290 596 270 577T226 557Q211 557 198 567T184 600ZM21 287Q21 295 30 318T54 369T98 420T158 442Q197 442 223 419T250 357Q250 340 236 301T196 196T154 83Q149 61 149 51Q149 26 166 26Q175 26 185 29T208 43T235 78T260 137Q263 149 265 151T282 153Q302 153 302 143Q302 135 293 112T268 61T223 11T161 -11Q129 -11 102 10T74 74Q74 91 79 106T122 220Q160 321 166 341T173 380Q173 404 156 404H154Q124 404 99 371T61 287Q60 286 59 284T58 281T56 279T53 278T49 278T41 278H27Q21 284 21 287Z"></path><path id="MJX-29-TEX-I-6E" d="M21 287Q22 293 24 303T36 341T56 388T89 425T135 442Q171 442 195 424T225 390T231 369Q231 367 232 367L243 378Q304 442 382 442Q436 442 469 415T503 336T465 179T427 52Q427 26 444 26Q450 26 453 27Q482 32 505 65T540 145Q542 153 560 153Q580 153 580 145Q580 144 576 130Q568 101 554 73T508 17T439 -10Q392 -10 371 17T350 73Q350 92 386 193T423 345Q423 404 379 404H374Q288 404 229 303L222 291L189 157Q156 26 151 16Q138 -11 108 -11Q95 -11 87 -5T76 7T74 17Q74 30 112 180T152 343Q153 348 153 366Q153 405 129 405Q91 405 66 305Q60 285 60 284Q58 278 41 278H27Q21 284 21 287Z"></path><path id="MJX-29-TEX-I-67" d="M311 43Q296 30 267 15T206 0Q143 0 105 45T66 160Q66 265 143 353T314 442Q361 442 401 394L404 398Q406 401 409 404T418 412T431 419T447 422Q461 422 470 413T480 394Q480 379 423 152T363 -80Q345 -134 286 -169T151 -205Q10 -205 10 -137Q10 -111 28 -91T74 -71Q89 -71 102 -80T116 -111Q116 -121 114 -130T107 -144T99 -154T92 -162L90 -164H91Q101 -167 151 -167Q189 -167 211 -155Q234 -144 254 -122T282 -75Q288 -56 298 -13Q311 35 311 43ZM384 328L380 339Q377 350 375 354T369 368T359 382T346 393T328 402T306 405Q262 405 221 352Q191 313 171 233T151 117Q151 38 213 38Q269 38 323 108L331 118L384 328Z"></path><path id="MJX-29-TEX-N-35" d="M164 157Q164 133 148 117T109 101H102Q148 22 224 22Q294 22 326 82Q345 115 345 210Q345 313 318 349Q292 382 260 382H254Q176 382 136 314Q132 307 129 306T114 304Q97 304 95 310Q93 314 93 485V614Q93 664 98 664Q100 666 102 666Q103 666 123 658T178 642T253 634Q324 634 389 662Q397 666 402 666Q410 666 410 648V635Q328 538 205 538Q174 538 149 544L139 546V374Q158 388 169 396T205 412T256 420Q337 420 393 355T449 201Q449 109 385 44T229 -22Q148 -22 99 32T50 154Q50 178 61 192T84 210T107 214Q132 214 148 197T164 157Z"></path><path id="MJX-29-TEX-N-30" d="M96 585Q152 666 249 666Q297 666 345 640T423 548Q460 465 460 320Q460 165 417 83Q397 41 362 16T301 -15T250 -22Q224 -22 198 -16T137 16T82 83Q39 165 39 320Q39 494 96 585ZM321 597Q291 629 250 629Q208 629 178 597Q153 571 145 525T137 333Q137 175 145 125T181 46Q209 16 250 16Q290 16 318 46Q347 76 354 130T362 333Q362 478 354 524T321 597Z"></path><path id="MJX-29-TEX-N-65" d="M28 218Q28 273 48 318T98 391T163 433T229 448Q282 448 320 430T378 380T406 316T415 245Q415 238 408 231H126V216Q126 68 226 36Q246 30 270 30Q312 30 342 62Q359 79 369 104L379 128Q382 131 395 131H398Q415 131 415 121Q415 117 412 108Q393 53 349 21T250 -11Q155 -11 92 58T28 218ZM333 275Q322 403 238 411H236Q228 411 220 410T195 402T166 381T143 340T127 274V267H333V275Z"></path><path id="MJX-29-TEX-N-6C" d="M42 46H56Q95 46 103 60V68Q103 77 103 91T103 124T104 167T104 217T104 272T104 329Q104 366 104 407T104 482T104 542T103 586T103 603Q100 622 89 628T44 637H26V660Q26 683 28 683L38 684Q48 685 67 686T104 688Q121 689 141 690T171 693T182 694H185V379Q185 62 186 60Q190 52 198 49Q219 46 247 46H263V0H255L232 1Q209 2 183 2T145 3T107 3T57 1L34 0H26V46H42Z"></path><path id="MJX-29-TEX-N-73" d="M295 316Q295 356 268 385T190 414Q154 414 128 401Q98 382 98 349Q97 344 98 336T114 312T157 287Q175 282 201 278T245 269T277 256Q294 248 310 236T342 195T359 133Q359 71 321 31T198 -10H190Q138 -10 94 26L86 19L77 10Q71 4 65 -1L54 -11H46H42Q39 -11 33 -5V74V132Q33 153 35 157T45 162H54Q66 162 70 158T75 146T82 119T101 77Q136 26 198 26Q295 26 295 104Q295 133 277 151Q257 175 194 187T111 210Q75 227 54 256T33 318Q33 357 50 384T93 424T143 442T187 447H198Q238 447 268 432L283 424L292 431Q302 440 314 448H322H326Q329 448 335 442V310L329 304H301Q295 310 295 316Z"></path></defs><g stroke="currentColor" fill="currentColor" stroke-width="0" transform="matrix(1 0 0 -1 0 0)"><g data-mml-node="math"><g data-mml-node="mi"><use xlink:href="#MJX-29-TEX-I-66"></use></g><g data-mml-node="mrow" transform="translate(550, 0)"><g data-mml-node="mo"><use xlink:href="#MJX-29-TEX-N-28"></use></g><g data-mml-node="mi" transform="translate(389, 0)"><use xlink:href="#MJX-29-TEX-I-78"></use></g><g data-mml-node="mo" transform="translate(961, 0)"><use xlink:href="#MJX-29-TEX-N-29"></use></g></g><g data-mml-node="mo" transform="translate(2177.8, 0)"><use xlink:href="#MJX-29-TEX-N-3D"></use></g><g data-mml-node="mrow" transform="translate(3233.6, 0)"><g data-mml-node="mo"><use xlink:href="#MJX-29-TEX-S3-7B"></use></g><g data-mml-node="mtable" transform="translate(750, 0)"><g data-mml-node="mtr" transform="translate(0, 647.3)"><g data-mml-node="mtd"><g data-mml-node="mn"><use xlink:href="#MJX-29-TEX-N-31"></use></g><g data-mml-node="mstyle" transform="translate(500, 0)"><g data-mml-node="mspace"></g></g><g data-mml-node="mi" transform="translate(1500, 0)"><use xlink:href="#MJX-29-TEX-I-72"></use></g><g data-mml-node="mi" transform="translate(1951, 0)"><use xlink:href="#MJX-29-TEX-I-61"></use></g><g data-mml-node="mi" transform="translate(2480, 0)"><use xlink:href="#MJX-29-TEX-I-74"></use></g><g data-mml-node="mi" transform="translate(2841, 0)"><use xlink:href="#MJX-29-TEX-I-69"></use></g><g data-mml-node="mi" transform="translate(3186, 0)"><use xlink:href="#MJX-29-TEX-I-6E"></use></g><g data-mml-node="mi" transform="translate(3786, 0)"><use xlink:href="#MJX-29-TEX-I-67"></use></g><g data-mml-node="mo" transform="translate(4540.8, 0)"><use xlink:href="#MJX-29-TEX-N-3D"></use></g><g data-mml-node="mn" transform="translate(5596.6, 0)"><use xlink:href="#MJX-29-TEX-N-35"></use></g></g></g><g data-mml-node="mtr" transform="translate(0, -647.3)"><g data-mml-node="mtd"><g data-mml-node="mn"><use xlink:href="#MJX-29-TEX-N-30"></use></g><g data-mml-node="mstyle" transform="translate(500, 0)"><g data-mml-node="mspace"></g></g><g data-mml-node="mtext" transform="translate(1500, 0)"><use xlink:href="#MJX-29-TEX-N-65"></use><use xlink:href="#MJX-29-TEX-N-6C" transform="translate(444, 0)"></use><use xlink:href="#MJX-29-TEX-N-73" transform="translate(722, 0)"></use><use xlink:href="#MJX-29-TEX-N-65" transform="translate(1116, 0)"></use></g></g></g></g><g data-mml-node="mo" transform="translate(6846.6, 0)"></g></g></g></g></svg>
